X: 13
T: Home Ruler, The
C: Frank McCollum
Z: ceili
S: https://thesession.org/tunes/310#setting48034
R: hornpipe
M: 4/4
L: 1/8
K: Dmaj
|:A,B,|"D"D2 FA D2 FA|dfed "G"BcdB|"D"A/A/A AB AFDE|FDED B,DA,B,|
"D"D2 FA D2 FA|dfed "G"BcdB|"D"A/A/A AB AFDE|FD D/D/D D2:|
|:AB|"D"d2 dc defg|afbf afed|"A"efed BA B/c/d|"D"fded BdAB|
d2 dc defg|afbf afed|"A"efed BA d/d/B|"D"AF"A"EF "D"D2:|

